X: 1
T: Auld Wheel, The
M: 4/4
L: 1/8
R: reel
K: Amaj
|(3ddd A=G F=GAd|(3BBB edcAAc|
(3ddd A=G F=GAd|cdec dD (3DDD|
(3ddd A=G F=GAd|(3BBB ed cAAc|
(3ddd AF GAB=g|fedc dDD=g||
fDFA dfaf|eEGB ef=ge|
fDFA dfaf|(3eee =gefdda|
fDFA dfaf|eE=GB ef=ga|
ba=gf edcB|A=GFE D2 (3ABc||
